X: 12
T: Pleut or a Dieu que n'aymasse jamais
N: Derived from Com3030-Pleut_or_a_Dieu_que_naymasse_jamais.krn
C: Loyset Comp\`ere
%%abc-version 2.0
%%abcx-abcm2ps-target-version 5.9.1 (29 Sep 2008)
%%abc-creator hum2abc beta
%%abcx-conversion-date 2019/02/16 20:28:09
%%abc-edited-by Jesse Rodin
%%abc-edited-by Megan K. Eagen 2013/12/01
%%abcx-initial-encoding-date 2013/12/01/
%%humdrum-veritas 590453462
%%humdrum-veritas-data 882505966
%%linebreak <none>
%%barnumbers 0
L: 1/4
M: 2/1
Q: 1/2=120
V: 1 clef=treble
V: 2 clef=treble-8
V: 3 clef=bass
K: C
[V:1] E8 | 
[V:2] z8 | 
[V:3] A,8 | 
[V:1] G4G4 | 
[V:2] z8 | 
[V:3] G,4E,4 | 
[V:1] A4G2A2- | 
[V:2] c8 | 
[V:3] F,4E,2F,2- | 
[V:1] A2GFE4- | 
[V:2] c4c4 | 
[V:3] F,2E,D,C,4 | 
[V:1] E4E4 | 
[V:2] c6de | 
[V:3] z4C,4 | 
[V:1] D4D4 | 
[V:2] f4f4 | 
[V:3] D,2_B,,3C,D,2 | 
[V:1] G3A/B/c2B2- | 
[V:2] e6d2 | 
[V:3] E,2C,4G,2- | 
[V:1] BAA4^G2 | 
[V:2] e2c2B4 | 
[V:3] G,2A,2E,4 | 
[V:1] A8 | 
[V:2] A3Bc2d2 | 
[V:3] z2F,4E,D, | 
[V:1] z4A4 | 
[V:2] e2f4ed | 
[V:3] C,2D,4C,B,, | 
[V:1] c4c4 | 
[V:2] e4A4 | 
[V:3] A,,2A,4G,F, | 
[V:1] B4A4 | 
[V:2] z2d4c2 | 
[V:3] G,4F,4 | 
[V:1] A4G4 | 
[V:2] A2c4B2 | 
[V:3] z2C,3D,E,2 | 
[V:1] A2GFE4 | 
[V:2] A2d4c2 | 
[V:3] F,2D,2A,4 | 
[V:1] D2E4DC | 
[V:2] B2c4BA | 
[V:3] z2A,,3B,,C,D, | 
[V:1] B,2A,2B,4 | 
[V:2] G2A4^G2 | 
[V:3] E,2F,2E,4 | 
[V:1] A,4z4 | 
[V:2] A8 | 
[V:3] A,,2D,4C,2 | 
[V:1] E4G4 | 
[V:2] c8 | 
[V:3] A,,2C,3D,E,2- | 
[V:1] G4D4 | 
[V:2] G4z2G2 | 
[V:3] E,2D,2B,,4 | 
[V:1] z2D2E2F2 | 
[V:2] A2B2c2d2- | 
[V:3] A,,2D,2C,2F,2 | 
[V:1] G2FED4 | 
[V:2] dcc4B2 | 
[V:3] E,2C,2G,4 | 
[V:1] C4G4 | 
[V:2] c4z2c2- | 
[V:3] z2C,3D,E,2 | 
[V:1] A2B2c2d2- | 
[V:2] c2d2e2f2 | 
[V:3] A,,2D,2C,2_B,,2- | 
[V:1] dcc4B2 | 
[V:2] g2fed4 | 
[V:3] B,,2C,2G,4 | 
[V:1] c4z2c2 | 
[V:2] c8 | 
[V:3] C,2F,3G,A,2- | 
[V:1] A4A4 | 
[V:2] z4c4 | 
[V:3] A,G,F,E,F,4 | 
[V:1] G2ABc4 | 
[V:2] e4e4 | 
[V:3] E,4C,4 | 
[V:1] B2A4GF | 
[V:2] d4c2A2- | 
[V:3] G,2D,2A,3B, | 
[V:1] E8 | 
[V:2] A2B2c2A2 | 
[V:3] C2G,2A,4 | 
[V:1] z2E3FG2 | 
[V:2] G4z2c2- | 
[V:3] E,3F,G,2C,2- | 
[V:1] A2G2c4 | 
[V:2] c2B2A2e2- | 
[V:3] C,D,E,2A,,4 | 
[V:1] B2A4^G2 | 
[V:2] e2dcB4 | 
[V:3] E,8 | 
[V:1] A8 |]  
[V:2] A8 |]  
[V:3] A,,8 |]  



